X:1
T:James Gibb editions
T:Psalm 14 (Becker) - Schütz
%%score [ ( 1 2 ) ( 3 4 ) ]
L:1/8
Q:1/4=108
M:2/2
K:F
V:1 treble nm="Soprano Alto"
V:2 treble 
V:3 bass nm="Tenor Bass"
V:4 bass 
V:1
"^Cornelius Becker\n(1561-1604)""^Heinrich Schütz\n(1585-1672)""^Psalm 14, SWV 110" B4 B2 A2 | %1
w: ~Es spricht der|
w: doch ist ihr|
 F2 B2 c2 d2 | B4 F4 | B2 c2 d2 _e2 | (cB c2) B4 :|[M:2/2] B4 G2 A2 | B2 G2 F2 _E2 | F4 F4 | %8
w: Un- wei- sen Mund|wohl: den|rech- ten Gott wir|mei\- * * den,|ihr We- sen|ist ver- der- bet|zwar, vor|
w: Herz Un- glau- bens|voll, mit|Tat sie ihn ver-|nei\- * * nen,||||
 B2 c2 d2 _e2 | d2 c2 d4 | c4 d2 _e2 | f2 d2 (cB c2) | B8 |] %13
w: Gott ist es ein|Greu- el gar,|es tut ihr|kei- ner kein * *|gut.|
w: |||||
V:2
 D4 D2 C2 | D2 D2 F2 F2 | D4 D4 | D2 F2 F2 G2 | (FD F2) F4 :|[M:2/2] F4 _E2 F2 | D2 _E2 C2 C2 | %7
 C4 B,4 | D2 F2 F2 G2 | G2 G2 ^F4 | F4 F2 B2 | D2 F2 (FD F2) | F8 |] %13
V:3
 F,4 F,2 F,2 | A,2 G,2 A,2 B,2 | F,4 B,4 | B,2 A,2 B,2 G,2 | (A,B, A,2) B,4 :|[M:2/2] D4 B,2 D2 | %6
 G,2 B,2 A,2 G,2 | A,4 B,4 | %8
 F,2 A,2"^2. Gott selbst vom Himmel sah herab auf aller Menschen Kinder,\nzu schauen sie er sich begab, ob er jemand möchte finden,\nder sein Verstand gerichtet hätt', mit Ernst nach Gottes Worten tät\nund fragt nach seinem Willen.\n\n3. Da war niemand auf rechter Bahn, sie war'n all ausgeschritten,\nein jeder ging nach seinem Wahn und hielt verloren Sitten,\nes tät ihr keiner doch kein gut, wiewohl gar viel betrog der Mut,\nihr Tun sollt Gott gefallen.\n\n4. Wie lang wollen unwissend sein, die solche Müh' aufladen\nund fressen dafür das Volk mein und nähr'n sich mit sein'm Schaden?\nEs steht ihr Trauern nicht auf Gott, sie rufen ihn nicht in der Not,\nsie woll'n sich selbst versorgen.\n\n5. Darum ist ihr Herz nimmer still und steht allzeit in Forchten,\nGott bei den Frommen bleiben will, die ihm mit Glauben g'horchen,\nihr aber schmäht des Armen Rat und höhnet alles, was er sagt,\ndaß Gott sein Trost ist worden.\n\n6. Wer soll Israel, dem Armen, zu Zion Heil erlangen?\nGott wird sich sein's Vokl's erbarmen und lösen die Gefang'nen,\ndas wird er tun durch seinen Sohn, davon wird Jakob Wonne han\nund Israel sich freuen." A,2 C2 | %9
 B,2 G,2 A,4 | A,4 B,2 G,2 | A,2 B,2 (A,G, A,2) | B,8 |] %13
V:4
 B,,4 B,,2 F,2 | D,2 G,2 F,2 B,,2 | B,,4 B,4 | G,2 F,2 B,2 _E,2 | (F,G, F,2) B,,4 :| %5
[M:2/2] B,,4 _E,2 D,2 | G,2 _E,2 F,2 C,2 | F,4 B,,4 | B,,2 F,2 D,2 C,2 | G,2 _E,2 D,4 | %10
 F,4 B,,2 _E,2 | D,2 B,,2 (F,G, F,2) | B,,8 |] %13

